X: 1
T: Connemara, The
M: 4/4
L: 1/8
R: hornpipe
K: Dmaj
|: D>E | F>G (3GFE D>EF>D | A>DB>D (3ABA B>c | d>ed>B A>FD>F | E>^DE>F (3EFE =D>E |
F2 (3GFE D2 (3DEF | A>DB>D A>D (3ABc | d2 (3dcB A>FE>G | (3FGF D2 D2 :|
|: (3ABc | d2 (3cBA B>cd>e | f>ed>f (3efe d>e | f>de>d (3Bcd A>F | (3EEE D>F (3EEE (3GFE |
F>GF>E D3 F | A>DB>D (3AAA (3FGA | d>ed>B A>D (3EFG | (3FGF D2 D2 :|
